icons/desktop/20/swap-horizontal-20.svg

<svg width="20" height="20" viewBox="0 0 20 20" fill="none" xmlns="http://www.w3.org/2000/svg">
<path d="M4.927 11.0611C5.32291 10.6652 5.99993 10.9447 6.00024 11.5044V13.9996H14.1243C14.6071 13.9997 14.9991 14.3918 14.9993 14.8746C14.9993 15.3575 14.6071 15.7494 14.1243 15.7496H6.00024V18.2456C6.00024 18.8046 5.32301 19.0859 4.927 18.69L1.55688 15.3199C1.31202 15.0739 1.31216 14.6762 1.55688 14.4312L4.927 11.0611Z" fill="black"/>
<path d="M14.0002 1.75346C14.0005 1.19471 14.6776 0.914187 15.0735 1.3101L18.4426 4.68022C18.6876 4.92622 18.6876 5.32389 18.4426 5.56889L15.0735 8.93901C14.6775 9.33501 14.0002 9.05467 14.0002 8.49467V5.99955H4.87524C4.39224 5.99955 4.00024 5.60755 4.00024 5.12455C4.00039 4.64168 4.39233 4.24955 4.87524 4.24955H14.0002V1.75346Z" fill="black"/>
</svg>

<!-- This Source Code Form is subject to the terms of the Mozilla Public
   - License, v. 2.0. If a copy of the MPL was not distributed with this
   - file, You can obtain one at http://mozilla.org/MPL/2.0/. -->
<svg xmlns="http://www.w3.org/2000/svg" width="20" height="20" fill="context-fill" fill-opacity="context-fill-opacity" viewBox="0 0 20 20">
    <path d="M4.927 11.061A.628.628 0 0 1 6 11.504V14h8.124a.876.876 0 0 1 0 1.75H6v2.496c0 .559-.677.84-1.073.444l-3.37-3.37a.63.63 0 0 1 0-.889zM14 1.753c0-.558.678-.839 1.073-.443l3.37 3.37a.63.63 0 0 1 0 .889l-3.37 3.37A.629.629 0 0 1 14 8.495V6H4.875a.875.875 0 0 1 0-1.75H14z" />
</svg>
